svgs/groups/email.svg

<svg xmlns="http://www.w3.org/2000/svg" viewBox="0 0 16 16" class="symbol symbol-email" aria-labelledby="title" role="img"><title id="title">email icon</title><path class="cls-1" d="M.9 5.217l6.439 3.126a1.072 1.072 0 0 0 .818 0l6.948-3.433a.358.358 0 0 0 .2-.321 1 1 0 0 0-1-1H1.707A1.016 1.016 0 0 0 .7 4.6v.3a.358.358 0 0 0 .2.317zm13.761 1.5l-5.867 2.9a2.474 2.474 0 0 1-2.048.006l-5.4-2.613a.448.448 0 0 0-.646.405v4.657a.978.978 0 0 0 .973.977h12.548a1.089 1.089 0 0 0 1.079-1.087V7.119a.448.448 0 0 0-.642-.404z" data-name="Layer 1" role="presentation"/></svg>

<svg xmlns="http://www.w3.org/2000/svg" viewBox="0 0 16 16"><defs><style>.cls-1{fill:#231f20;}</style></defs><title>email</title><g id="Layer_1" data-name="Layer 1"><path class="cls-1" d="M.9,5.22,7.34,8.34a1.07,1.07,0,0,0,.82,0l6.95-3.43a.36.36,0,0,0,.2-.32,1,1,0,0,0-1-1H1.71a1,1,0,0,0-1,1v.3A.36.36,0,0,0,.9,5.22Zm13.76,1.5L8.79,9.62a2.47,2.47,0,0,1-2,0L1.34,7a.45.45,0,0,0-.64.41v4.66a1,1,0,0,0,1,1H14.22A1.09,1.09,0,0,0,15.3,12V7.12A.45.45,0,0,0,14.66,6.71Z"/></g></svg>
